Adwaita++-Light/panel/22/weather-none-available.svg

<svg height="22" width="22" xmlns="http://www.w3.org/2000/svg">
  <g transform="translate(-105.00001 -705.28997)">
    <path d="m11 4c-2.07107 0-3.83471 1.26792-4.59375 3.0625-1.92783.2866-3.40625 1.92992-3.40625 3.9375 0 2.20914 1.79086 4 4 4h1v-1c.0000511-.265199.1054326-.519519.2929688-.707031l1.7070312-1.707031v-.585938h-2c-.5522619-.000055-.9999448-.447738-1-1v-2c.0000552-.5522619.4477381-.9999448 1-1h5c.552262.0000552.999945.4477381 1 1v2 2c.000467.265876-.104954.520994-.292969.708984l-1.707031 1.707032v.583984h1 2.5c1.933 0 3.5-1.567 3.5-3.5 0-1.79654-1.35079-3.2687-3.09375-3.46875-.45457-2.29339-2.47938-4.03125-4.90625-4.03125z" fill="#444" opacity=".3" transform="translate(105.00001 705.28997)"/>
    <path d="m113.00001 713.28997v2h3v2l-2 2v2h2v-2l2-2v-2-2zm1 9v2h2v-2z" fill="#4285f4"/>
  </g>
</svg>

<svg xmlns="http://www.w3.org/2000/svg" width="22" height="22" version="1.1">
 <defs>
  <style id="current-color-scheme" type="text/css">
   .ColorScheme-Text { color:#444444; } .ColorScheme-Highlight { color:#4285f4; }
  </style>
 </defs>
 <g transform="translate(-105.00001,-705.28997)">
  <path style="fill:currentColor;opacity:0.3" class="ColorScheme-Text" d="M 11,4 C 8.92893,4 7.16529,5.26792 6.40625,7.0625 4.47842,7.3491 3,8.99242 3,11 c 0,2.20914 1.79086,4 4,4 l 1,0 0,-1 c 5.11e-5,-0.265199 0.1054326,-0.519519 0.2929688,-0.707031 L 10,11.585938 10,11 8,11 C 7.4477381,10.999945 7.0000552,10.552262 7,10 L 7,8 C 7.0000552,7.4477381 7.4477381,7.0000552 8,7 l 5,0 c 0.552262,5.52e-5 0.999945,0.4477381 1,1 l 0,2 0,2 c 4.67e-4,0.265876 -0.104954,0.520994 -0.292969,0.708984 L 12,14.416016 12,15 l 1,0 2.5,0 C 17.433,15 19,13.433 19,11.5 19,9.70346 17.64921,8.2313 15.90625,8.03125 15.45168,5.73786 13.42687,4 11,4 Z" transform="translate(105.00001,705.28997)"/>
  <path style="fill:currentColor" class="ColorScheme-Highlight" d="m 113.00001,713.28997 0,2 3,0 0,2 -2,2 0,2 2,0 0,-2 2,-2 0,-2 0,-2 z m 1,9 0,2 2,0 0,-2 z"/>
 </g>
</svg>
